X: 38079
T: Splash And Paddle
R: reel
M: 4/4
K: Aminor
|:"Am"A2AB cedc|"G"BABc dgag|"Am" A2AB cde2|"G"BdGc "Em7"Bcde|
"Am"c2 ed cBAc|"G"Bcde dgag|"Am"a2 ge "D"^fdcA|"Em"gedB "Am"A4:|
|:"C"cGce "F"fedc|"G"B2"D7"cA "G"BdG2|"C"c2de "F/C"f2dc|"G"B2cd "E"efde|
"Am"c2ed cBAG|"Am"EAAB cBce|"E"a^f"Am"ge "D"fdcA|"Em"gedB "Am"A4:|

